X:1
T: Aberdeen (or, The De'il's Dead)
N:
C:
S:6 times
A:
O:
R:
M:4/4
K:G
I:speed 210
%W: A1
% voice 1 (1 lines, 29 notes)
K:G
M:4/4
L:1/16
G6 A2 B4 d4 |g8 f4 e4 |g8 f4 e4 |f2 g2 a4 A4 B4 |G6 A2 B4 d4 |g6 a2 b4 a4 |g4 e4 d4 B4 |A8 e8 |
%W: A2
% voice 1 (1 lines, 29 notes)
G6 A2 B4 d4 |g8 f4 e4 |g8 f4 e4 |f2 g2 a4 A4 B4 |G6 A2 B4 d4 |g6 a2 b4 a4 |g4 e4 d4 B4 |A8 e8 |
%W: B1
% voice 1 (1 lines, 36 notes)
G6 A2 B4 c4 |d4 G4 B2 c2 d2 B2 |d4 G4 B2 c2 d2 B2 |e2 d2 c2 B2 A4 B4 |G6 A2 B4 c4 |g6 a2 b4 a4 |g4 e4 d4 B4 |A8 e8 |
%W: B2
% voice 1 (1 lines, 36 notes)
G6 A2 B4 c4 |d4 G4 B2 c2 d2 B2 |d4 G4 B2 c2 d2 B2 |e2 d2 c2 B2 A4 B4 |G6 A2 B4 c4 |g6 a2 b4 a4 |g4 e4 d4 B4 |A8 e8 ||
